Origami/16x16/apps/vbam.svg

<svg width="16" height="16" version="1" xmlns="http://www.w3.org/2000/svg">
 <path d="m5.8148437 3c-0.7788902 0-1.4741146 0.4893332-1.9523437 1h-1.4624999c-1.3296 0-2.4000001 0.9483334-2.4000001 2.3333334v3.3333329c0 1.3849997 1.0704001 2.3333337 2.4000001 2.3333337h1.4624999c0.4782291 0.510654 1.1734535 1 1.9523437 1h4.3703123c0.778891 0 1.474115-0.489334 1.952344-1h1.4625c1.3296 0 2.4-0.948334 2.4-2.3333337v-3.3333329c0-1.385-1.0704-2.3333334-2.4-2.3333334h-1.4625c-0.478229-0.5106541-1.173453-1-1.952344-1z" style="fill:#7f4fc8"/>
 <circle transform="rotate(90)" cx="8.5" cy="-12.5" r=".5" style="fill:#ffffff"/>
 <rect x="5" y="5" width="6" height="6" style="fill:#7b92ed"/>
 <circle transform="rotate(90)" cx="5.5" cy="-13.5" r=".5" style="fill:#52ff41"/>
 <rect x="2" y="6" width="1" height="3" style="fill:#ffffff"/>
 <rect transform="rotate(90)" x="7" y="-4" width="1" height="3" style="fill:#ffffff"/>
 <circle transform="rotate(90)" cx="7.5" cy="-14.5" r=".5" style="fill:#ffffff"/>
</svg>

<svg xmlns="http://www.w3.org/2000/svg" width="16" height="16" version="1">
 <path style="fill:#7f4fc8" d="M 5.8148437,3 C 5.0359535,3 4.3407291,3.4893332 3.8625,4 L 2.4000001,4 C 1.0704001,4 4e-8,4.9483334 4e-8,6.3333334 l 0,3.3333329 C 4e-8,11.051666 1.0704001,12 2.4000001,12 L 3.8625,12 c 0.4782291,0.510654 1.1734535,1 1.9523437,1 l 4.3703123,0 c 0.778891,0 1.474115,-0.489334 1.952344,-1 L 13.6,12 C 14.9296,12 16,11.051666 16,9.6666663 L 16,6.3333334 C 16,4.9483334 14.9296,4 13.6,4 L 12.1375,4 C 11.659271,3.4893459 10.964047,3 10.185156,3 Z"/>
 <circle style="fill:#ffffff" cx="8.5" cy="-12.5" r=".5" transform="matrix(0,1,-1,0,0,0)"/>
 <rect style="fill:#7b92ed" width="6" height="6" x="5" y="5"/>
 <circle style="fill:#52ff41" cx="5.5" cy="-13.5" r=".5" transform="matrix(0,1,-1,0,0,0)"/>
 <rect style="fill:#ffffff" width="1" height="3" x="2" y="6"/>
 <rect style="fill:#ffffff" width="1" height="3" x="7" y="-4" transform="matrix(0,1,-1,0,0,0)"/>
 <circle style="fill:#ffffff" cx="7.5" cy="-14.5" r=".5" transform="matrix(0,1,-1,0,0,0)"/>
</svg>
